!!!!SEGMENT: pl-wtm--r-1336_stefani-jozef--mazur-d-nr-2.krn
!!!cenid: 18xx:1843
!!!COM: Stefani, Józef
!!!COM-rismid: pe30024097
!!!CDT: 1800/04/16-1876/03/19
!!!CNT: Polish
!!!OTL: Mazur D nr 2
!!!PDT:
!!!AGN: Secular; Mazurka
!!!SMS-siglum: PL-Wtm
!!!SMS-shelfmark: R 1336
!!!SMS-shelfwork: W
!!!SMS-variant:
!!!SMS-altvar:
!!!NIFC-rismid: 1001119015
!!!OMD: molto allegro
!!!system-decoration: {(s1,s2)}
**kern	**kern	**dynam
*part1	*part1	*part1
*staff2	*staff1	*
*Iempty	*Ipiano	*
*	*I"Piano	*
*clefF4	*clefG2	*
*k[f#c#]	*k[f#c#]	*
*D:	*D:	*
*M3/8	*M3/8	*
*>[A,B,C,C,D,E,E,F,G,G1,G,G2,H,H,I,I,J,J,K]	*>[A,B,C,C,D,E,E,F,G,G1,G,G2,H,H,I,I,J,J,K]	*
=1	=1	=1
*>A	*>A	*
!	!LO:TX:t=P:problem:all\right:global	!
!LO:TX:t=P:problem:all\right:global	!	!
!	!LO:TX:a:Bi:t=Introdukcja.	!
!	!	!LO:DY:b:rj
8AA/L	8A/L	f
8GG#X/	8G#X/	.
8BB/J	8B/J	.
=2	=2	=2
8AA/L	8A/L	.
8C#/	8c#/	.
8BB/J	8B/J	.
=3	=3	=3
8D/L	8d/L	.
8C#/	8c#/	.
8E/J	8e/J	.
=4	=4	=4
8D\L	8d/L	.
8F#\	8f#/	.
8E\J	8e/J	.
!!LO:LB:g=original
=5	=5	=5
8G\	8g/	.
8.r	8.r	.
16B-X 16BB-X\	16cc# 16g 16e/	.
=6	=6	=6
4A 4AA\	4cc# 4g 4e/	.
16r	16r	.
16B-X 16BB-X\	16ee 16cc# 16g\	.
=7	=7	=7
4A 4AA\	4ee 4cc# 4g\	.
16r	16r	.
16B-X 16BB-X\	16gg 16ee 16cc# 16g\	.
=8	=8	=8
!	!LO:TX:b:Bi:t=Attaca\nMazur.	!
4.A 4.AA;>\	4.gg 4.ee 4.cc# 4.g;>\	.
!!LO:PB:g=original
=9||	=9||	=9||
*>B	*>B	*
!	!	!LO:DY:b:rj
8AL 8F# 8D\	16.dd`>\LL	f
.	32ff#`>\K	.
8A 8F# 8D\	16.aa`>\	.
.	32ddd`>\JJk	.
8BJ 8G#X 8E#X 8D\	16.bb`>\LL	sf
.	32gg#X`>\JJk	.
=10	=10	=10
*rep	*	*
8AL 8F# 8D\	16.aa`>\LL	.
.	32ff#`>\K	.
8A 8F# 8D\	16.dd`>\	.
.	32ddd`>\JJk	.
8BJ 8G#X 8E#X 8D\	16.bb`>\LL	sf
.	32gg#X`>\JJk	.
*Xrep	*	*
=11	=11	=11
*tremolo	*	*
8AL 8F# 8D\	16.aa`>\LL	.
.	32ff#`>\JK	.
8A 8F# 8D\	8dd`>\J	.
.	8qee#X/	.
8AJ 8F# 8D\	8ff#\	.
=12	=12	=12
.	(<8qff#/	.
8AL 8E 8C# 8AA\	16.ee\LL)	.
.	32dd#X`>\JK	.
8A 8E 8C# 8AA\	8ee`>\J	.
8AJ 8E 8C# 8AA\	8aa 8cc# 8a`>\	.
*Xtremolo	*	*
!!LO:LB:g=original
=13	=13	=13
8AL 8F# 8D\	16.dd\LL	.
.	32ff#\K	.
8A 8F# 8D\	16.aa\	.
.	32ddd\JJk	.
8BJ 8G#X 8E#X 8D\	16.bb\LL	sf
.	32gg#X\JJk	.
=14	=14	=14
*rep	*	*
8AL 8F# 8D\	16.aa\LL	.
.	32ff#\K	.
8A 8F# 8D\	16.dd\	.
.	32ddd\JJk	.
8BJ 8G#X 8E#X 8D\	16.bb\LL	sf
.	32gg#X\JJk	.
*Xrep	*	*
=15	=15	=15
8AL 8F# 8D\	16.aa\LL	.
.	32ff#\K	.
8A 8F# 8D\	16.dd\	.
.	32ff#\JJk	.
.	8qff#/	.
8GJ 8E 8AA\	16.ee\LL	.
.	32cc#\JJk	.
=16	=16	=16
8F# 8D\	8dd\	.
8D 8DD/	8ddd 8ff# 8dd\	.
8r	8r	.
!!LO:LB:g=original
=17!|:	=17!|:	=17!|:
*>C	*>C	*
(<8qFF#/	.	.
16.F#LL 16.FF#/)	16.f#/LL	.
32EJJk 32EE/	32a#XJJk 32f#/	.
8DL 8DD/	8bL 8f#/	.
8BBJ 8BBB/	8ddJ 8f#/	.
=18	=18	=18
8AA#X 8AAA#X/	16.cc#/LL	.
.	32f#/JJk	.
8FF#L 8FFF#/	8ff#L 8cc# 8f#/	.
8AA#J 8AAA#/	8eeJ 8cc# 8f#/	.
=19	=19	=19
16.BBLL 16.BBB/	16.ddLL 16.f#/	.
32C#K 32CC#/	32cc#K 32f#/	.
16.D 16.DD/	16.b 16.f#/	.
32C#K 32CC#/	32cc#K 32a#X 32f#/	.
16.BB 16.BBB/	16.dd 16.b 16.f#/	.
32DJJk 32DD/	32bJJk 32f#/	.
=20	=20	=20
.	(<8qdd/	.
8FF# 8FFF#/	16.cc#\LL)	.
.	32b#X\JJk	.
8F#L 8C# 8AA#X 8FF#/	8cc#\L	.
8F#J 8C# 8AA# 8FF#/	8ff#J 8cc# 8a#X 8f#\	.
!!LO:LB:g=original
=21	=21	=21
16.F#LL 16.FF#/	16.f#/LL	.
32EJJk 32EE/	32a#XJJk 32f#/	.
8DL 8DD/	8bL 8f#/	.
8BBJ 8BBB/	8ddJ 8f#/	.
=22	=22	=22
.	(<8qff#/	.
8E 8EE/	16.ee\LL)	.
.	32dd#X\JJk	.
8dL 8B 8G#X 8E\	8ee\L	.
8dJ 8B 8G# 8E\	8b\J	.
=23	=23	=23
8c#L 8A 8E\	16.cc#\LL	.
.	32b\K	.
8c# 8A 8E\	16.a\	.
.	32cc#\JJk	.
.	(<8qcc#/	.
8dJ 8B 8E\	16.b/LL)	.
.	32g#X/JJk	.
=24	=24	=24
16c# 16A\	16a/	.
16r	16r	.
16.ALL 16.AA/	8aa 8cc# 8a\	.
32GK 32GG/	.	.
16.F# 16.FF#/	8r	.
32EJJk 32EE/	.	.
!!LO:LB:g=original
=25	=25	=25
8D 8DD/	16.dd\LL	.
.	32ff#\K	.
8AL 8F# 8D\	16.aa\	.
.	32ddd\JJk	.
8BJ 8G#X 8E#X 8D\	16.bb\LL	sf
.	32gg#X\JJk	.
=26	=26	=26
8AL 8F# 8D\	16.aa\LL	.
.	32ff#\K	.
8A 8F# 8D\	16.dd\	.
.	32ddd\JJk	.
8BJ 8G 8E 8D\	16.bb\LL	sf
.	32gg#X\JJk	.
=27	=27	=27
*tremolo	*	*
8AL 8F# 8D\	16.aa\LL	.
.	32ff#\JK	.
8A 8F# 8D\	8dd\J	.
.	(<8qee#X/	.
8AJ 8F# 8D\	8ff#\)	.
=28	=28	=28
.	(<8qff#/	.
8AL 8E 8C# 8AA\	16.ee#X\LL)	.
.	32dd#X`>\JK	.
8A 8E 8C# 8AA\	8ee#`>\J	.
8AJ 8E 8C# 8AA\	8aa 8cc# 8a`>\	.
*Xtremolo	*	*
!!LO:LB:g=original
=29	=29	=29
8AL 8F# 8D\	16.dd\LL	.
.	32ff#\K	.
8A 8F# 8D\	16.aa\	.
.	32ddd\JJk	.
8BJ 8G#X 8E#X 8D\	16.bb\LL	sf
.	32gg#X\JJk	.
=30	=30	=30
*rep	*	*
8AL 8F# 8D\	16.aa\LL	.
.	32ff#\K	.
8A 8F# 8D\	16.dd\	.
.	32ddd\JJk	.
8BJ 8G#X 8E#X 8D\	16.bb\LL	sf
.	32gg#X\JJk	.
*Xrep	*	*
=31	=31	=31
8AL 8F# 8D\	16.aa\LL	.
.	32ff#\K	.
8A 8F# 8D\	16.dd\	.
.	32ff#\JJk	.
.	(<8qff#/	.
8GJ 8E 8AA\	16.ee\LL)	.
.	32cc#\JJk	.
=32	=32	=32
8F# 8D\	8dd\	.
8D 8DD/	8ddd 8ff# 8dd\	.
8r	8r	.
*kcancel	*kcancel	*
!!LO:PB:g=original
=33:|!	=33:|!	=33:|!
*>D	*>D	*
*k[b-e-]	*k[b-e-]	*
!	!	!LO:DY:b:rj
8BB- 8BBB-/	8fL 8d'</	p
8B-L 8F 8BB-\	8b- 8f 8d'</	.
8B-J 8F 8BB-\	8ddJ 8b- 8f'</	.
=34	=34	=34
.	(<8qdd/	.
8E- 8EE-/	16.cc/LL)	.
.	32g`</JJk	.
8cL 8G 8E-\	8cc'</L	.
8cJ 8G 8E-\	8b-'</J	.
=35	=35	=35
*^	*	*
.	.	8qb-/	.
8FF\L	4.FF/	16.a/LL	.
.	.	32g#X/JJk	.
8F 8E- 8C\	.	16.a/LL	.
.	.	32f/JJk	.
8FJ 8E- 8C\	.	16.gn/LL	.
.	.	32a/JJk	.
*v	*v	*	*
=36	=36	=36
!	!	!LO:DY:b:rj
16.FLL 16.D 16.BB-\	16.b-LL 16.d`</	f
32cK 32F\	32ccK 32f`</	.
16.d 16.B-\	16.dd 16.b-`</	.
32e-JJk 32c\	32ee-JJk 32cc`</	.
8f 8d\	8ff 8dd`>\	.
!!LO:LB:g=original
=37	=37	=37
!	!	!LO:DY:b:rj
8B-L 8BB-\	8ffL 8dd'>\	p
8d 8B- 8D\	8bb- 8ff 8dd'>\	.
8dJ 8B- 8D\	8dddJ 8bb- 8ff'>\	.
=38	=38	=38
.	8qddd/	.
8E- 8EE-/	16.ccc\LL	.
.	32gg\JJk	.
8cL 8G 8E-\	8ccc\L	.
8cJ 8G 8E-\	8bb-\J	.
=39	=39	=39
.	(<8qbb-/	.
8F 8FF/	16.aa\LL)	.
.	32gg#X\JJk	.
8e-L 8c 8F\	16.aa\LL	.
.	32ff\JJk	.
8e-J 8c 8F\	16.ggn\LL	.
.	32aa\JJk	.
=40	=40	=40
16d 16B-\	16bb-\	.
16r	16r	.
4B- 4BB-\	4bb- 4dd 4b-^<\	.
!!LO:LB:g=original
=41!|:	=41!|:	=41!|:
*>E	*>E	*
!	!	!LO:DY:b:rj
8E- 8EE-/	8ee-L 8b- 8g'>\	f
8B-L 8G 8E-\	8gg 8ee- 8b-'>\	.
8B-J 8G 8E-\	8ee-J 8b- 8g'>\	.
=42	=42	=42
.	(<8qgg 8qee-/	.
8BB- 8BBB-/	16.ffLL 16.dd\)	.
.	32eenJJk 32cc#X'>\	.
8B-L 8F 8D 8BB-\	8ffL 8dd'>\	.
8B-J 8F 8D 8BB-\	8b-'>\J	.
=43	=43	=43
8E- 8EE-/	16.ee-LL 16.b- 16.g`>\	.
.	32ee-JJk 32b- 32g`>\	.
8B-L 8G 8E-\	8ggL 8ee- 8b-`>\	.
8B-J 8G 8E-\	(>16ffL 16b-\	.
.	16ee-JJ 16g\)	.
=44	=44	=44
.	(<8qqgg 8qqee-/	.
8BB- 8BBB-/	16.ffLL 16.dd\)	.
.	32eenJJk 32cc#X`>\	.
8B-L 8F 8D 8BB-\	8ffL 8dd`>\	.
8B-J 8F 8D 8BB-\	8b-`>\J	.
!!LO:LB:g=original
=45	=45	=45
!	!	!LO:DY:b:rj
8B-L 8BB-\	8ffL 8dd'>\	p
8d 8B- 8D\	8bb- 8ff 8dd'>\	.
8dJ 8B- 8D\	8dddJ 8bb- 8ff'>\	.
=46	=46	=46
.	(<8qddd/	.
8E- 8EE-/	16.ccc\LL)	.
.	32gg'>\JJk	.
8cL 8G 8E-\	8ccc'>\L	.
8cJ 8G 8E-\	8bb-'>\J	.
=47	=47	=47
.	(<8qbb-/	.
8F 8FF/	16.aa\LL)	.
.	32gg#X'>\JJk	.
8e-L 8c 8F\	16.aa'>\LL	.
.	32ff'>\JJk	.
8e-J 8c 8F\	16.ggn'>\LL	.
.	32aa'>\JJk	.
=48	=48	=48
16d 16B-\	16bb-`>\	.
16r	16r	.
4B- 4BB-\	4bb- 4dd 4b-`>^<\	.
*kcancel	*kcancel	*
!!LO:LB:g=original
=49:|!	=49:|!	=49:|!
*>F	*>F	*
*k[f#c#]	*k[f#c#]	*
!	!	!LO:DY:b:rj
8AL 8F# 8D\	16.dd\LL	f
.	32ff#\K	.
8A 8F# 8D\	16.aa\	.
.	32ddd\JJk	.
8BJ 8G#X 8E#X 8D\	16.bb\LL	sf
.	32gg#X\JJk	.
=50	=50	=50
*rep	*	*
8AL 8F# 8D\	16.aa\LL	.
.	32ff#\K	.
8A 8F# 8D\	16.dd\	.
.	32ddd\JJk	.
8BJ 8G#X 8E#X 8D\	16.bb\LL	sf
.	32gg#X\JJk	.
*Xrep	*	*
=51	=51	=51
*tremolo	*	*
8AL 8F# 8D\	16.aa\LL	.
.	32ff#\JK	.
8A 8F# 8D\	8dd\J	.
.	8qee#X/	.
8AJ 8F# 8D\	8ff#\	.
=52	=52	=52
.	8qff#/	.
8AL 8E 8C# 8AA\	16.ee\LL	.
.	32dd#X\JJk	.
8A 8E 8C# 8AA\	8ee\L	.
8AJ 8E 8C# 8AA\	8aaJ 8cc# 8a\	.
*Xtremolo	*	*
!!LO:LB:g=original
=53	=53	=53
8AL 8F# 8D\	16.dd\LL	.
.	32ff#\K	.
8A 8F# 8D\	16.aa\	.
.	32ddd\JJk	.
8BJ 8G#X 8E#X 8D\	16.bb\LL	sf
.	32gg#X\JJk	.
=54	=54	=54
*rep	*	*
8AL 8F# 8D\	16.aa\LL	.
.	32ff#\K	.
8A 8F# 8D\	16.dd\	.
.	32ddd\JJk	.
8BJ 8G#X 8E#X 8D\	16.bb\LL	sf
.	32gg#X\JJk	.
*Xrep	*	*
=55	=55	=55
8AL 8F# 8D\	16.aa\LL	.
.	32ff#\K	.
8A 8F# 8D\	16.dd\	.
.	32ff#\JJk	.
.	8qff#/	.
8GJ 8E 8AA\	16.ee\LL	.
.	32cc#\JJk	.
=56	=56	=56
8F# 8D\	8dd\	.
8D 8DD/	8ddd 8ff# 8dd\	.
!	!LO:TX:a:t=P:w źródle przed zmianą strony podwójna kreska taktowa:problem	!
!	!LO:TX:b:Bi:t=V&colon; S&colon;	!
8r	8r	.
!!LO:PB:g=original
=57!|:	=57!|:	=57!|:
*>G	*>G	*
16.F#LL 16.FF#/	16.f#/LL	.
32EJJk 32EE/	32a#XJJk 32f#/	.
8DL 8DD/	8bL 8f#/	.
8BBJ 8BBB/	8ddJ 8b 8f#/	.
=58	=58	=58
8AA#XL 8AAA#X/	16.cc#/LL	.
.	32f#/JJk	.
8FF# 8FFF#/	8ff#L 8cc# 8f#/	.
8AA#J 8AAA#/	8eeJ 8cc# 8f#/	.
=59	=59	=59
16.BBLL 16.BBB/	16.ddLL 16.f#/	.
32C#K 32CC#/	32cc#K 32f#/	.
16.D 16.DD/	16.b 16.f#/	.
32C#K 32CC#/	32cc#K 32a#X 32f#/	.
16.BB 16.BBB/	16.dd 16.b 16.f#/	.
32DJJk 32DD/	32bJJk 32f#/	.
=60	=60	=60
.	8qdd/	.
8FF# 8FFF#/	16.cc#\LL	.
.	32b#X\JJk	.
8F#L 8C# 8AA#X 8FF#/	8cc#\L	.
8F#J 8C# 8AA# 8FF#/	8ff#J 8cc# 8a#X 8f#\	.
!!LO:LB:g=original
=61	=61	=61
16.F#LL 16.FF#/	16.f#/LL	.
32EJJk 32EE/	32a#XJJk 32f#/	.
8DL 8DD/	8bL 8f#/	.
8BBJ 8BBB/	8ddJ 8b 8f#/	.
=62	=62	=62
.	8qff#/	.
8E 8EE/	16.ee\LL	.
.	32dd#X\JJk	.
8dL 8B 8G 8E\	8ee\L	.
8dJ 8B 8G 8E\	8b\J	.
=63	=63	=63
8c#L 8A 8E\	16.cc#/LL	.
.	32b/JJk	.
8c# 8A 8E\	16.a/LL	.
.	32cc#/JJk	.
.	8qcc#/	.
8dJ 8B 8E\	16.b/LL	.
.	32g#X/JJk	.
=64	=64	=64
16c# 16A\	16a/	.
16r	16r	.
16.ALL 16.AA/	8aa 8cc# 8a\	.
32GK 32GG/	.	.
16.F# 16.FF#/	8r	.
32EJJk 32EE/	.	.
!!LO:LB:g=original
=65	=65	=65
8D 8DD/	16.dd\LL	.
.	32ff#\K	.
8AL 8F# 8D\	16.aa\	.
.	32ddd\JJk	.
8BJ 8G#X 8E#X 8D\	16.bb\LL	sf
.	32gg#X\JJk	.
=66	=66	=66
8AL 8F# 8D\	16.aa\LL	.
.	32ff#\K	.
8A 8F# 8D\	16.dd\	.
.	32ddd\JJk	.
8BJ 8G#X 8E#X 8D\	16.bb\LL	sf
.	32gg#X\JJk	.
=67	=67	=67
*tremolo	*	*
8AL 8F# 8D\	16.aa\LL	.
.	32ff#\JK	.
8A 8F# 8D\	8dd\J	.
.	8qee#X/	.
8AJ 8F# 8D\	8ff#\	.
=68	=68	=68
.	8qff#/	.
8AL 8E 8C# 8AA\	16.ee\LL	.
.	32dd#X\JK	.
8A 8E 8C# 8AA\	8ee\J	.
8AJ 8E 8C# 8AA\	8aa 8cc# 8a\	.
*Xtremolo	*	*
!!LO:LB:g=original
=69	=69	=69
8AL 8F# 8D\	16.dd`>\LL	.
.	32ff#`>\K	.
8A 8F# 8D\	16.aa`>\	.
.	32ddd`>\JJk	.
8BJ 8G#X 8E#X 8D\	16.bb`>\LL	sf
.	32gg#X`>\JJk	.
=70	=70	=70
*rep	*	*
8AL 8F# 8D\	16.aa`>\LL	.
.	32ff#`>\K	.
8A 8F# 8D\	16.dd`>\	.
.	32ddd`>\JJk	.
8BJ 8G#X 8E#X 8D\	16.bb`>\LL	sf
.	32gg#X`>\JJk	.
*Xrep	*	*
=71	=71	=71
8AL 8F# 8D\	16.aa\LL	.
.	32ff#\K	.
8A 8F# 8D\	16.dd\	.
.	32ff#\JJk	.
.	(<8qff#/	.
8GJ 8E 8AA\	16.ee\LL)	.
.	32cc#`>\JJk	.
=72	=72	=72
!!LO:TX:a:Bi:t=1ma
*>G1	*>G1	*
16F# 16D\	16dd\	.
16r	16r	.
8D 8DD/	8ddd 8ff# 8dd\	.
8r	8r	.
=73:|!	=73:|!	=73:|!
!!LO:TX:a:Bi:t=2da
*>G2	*>G2	*
8F# 8D\	8dd\	.
8D 8DD/	8ddd 8ff# 8dd\	.
8r	(>16dd\LL	.
.	32ee\L	.
!	!LO:TX:a:t=P:w źródle łuk kończy się za kreską taktową:problem	!
.	32ff#\JJJ)	.
*kcancel	*kcancel	*
!!LO:LB:g=original
=74||	=74||	=74||
*>H	*>H	*
*k[f#]	*k[f#]	*
!	!LO:TX:a:Bi:t=Trio.	!
16.G\	8gg\	.
32d 32B 32G\	.	.
8dL 8B 8G\	8r	.
8dJ 8B 8G\	8r	.
=75	=75	=75
*tremolo	*	*
8dL 8B 8G\	4.r	.
8d 8B 8G\	.	.
8dJ 8B 8G\	.	.
=76	=76	=76
8dL 8B 8G\	16.ggLL 16.g\	.
.	32bbJJk 32b\	.
8d 8B 8G\	8eeeL 8ee\	.
8dJ 8B 8G\	8dddJ 8dd\	.
=77	=77	=77
*rep	*	*
8dL 8B 8G\	16.eeeLL 16.ee\	.
.	32dddJJk 32dd\	.
8d 8B 8G\	8ggL 8g\	.
8dJ 8B 8G\	8bbJ 8b\	.
*Xrep	*	*
*Xtremolo	*	*
=78	=78	=78
8D 8DD/	(>16bbLL 16b\	.
.	16aaJJ 16a\)	.
8cL 8A 8F# 8D\	8dd 8d/	.
8cJ 8A 8F# 8D\	8ddd 8dd\	.
!!LO:LB:g=original
=79	=79	=79
8G 8GG/	(>16eeLL 16cc\	.
.	16ddJJ 16b\)	.
4B 4G 4D\	4gg 4b 4g\	.
=80	=80	=80
8G 8GG\	16.ggLL 16.g\	.
.	32bbJJk 32b\	.
8dL 8B 8G\	8eeeL 8ee\	.
8dJ 8B 8G\	8dddJ 8dd\	.
=81	=81	=81
*tremolo	*	*
8dL 8B 8G\	16.eeeLL 16.ee\	.
.	32dddJJk 32dd\	.
8d 8B 8G\	8ggL 8g\	.
8dJ 8B 8G\	8bbJ 8b\	.
*Xtremolo	*	*
=82	=82	=82
8AA 8AAA/	16bbLL 16b\	.
.	16aaJJ 16a\	.
8GL 8C#X 8AA\	8ggL 8g\	.
8GJ 8C# 8AA\	8eeJ 8e\	.
=83	=83	=83
8F# 8D\	8dd 8d/	.
4D 4DD/	4ddd 4ff# 4dd\	.
!!LO:PB:g=original
=84:|!|:	=84:|!|:	=84:|!|:
*>I	*>I	*
!	!	!LO:DY:b:rj
16D\LL	16.ccLL 16.a`>\	f
16d\	.	.
.	32ccJJk 32a`>\	.
16F#\	8eeL 8cc`>\	.
16d\	.	.
16D\	(>16ddL 16b\	.
16d\JJ	16ccJJ 16a\)	.
=85	=85	=85
16G\LL	16.bLL 16.g'>\	.
16d\	.	.
.	32ccK 32a'>\	.
16B\	16.dd 16.b'>\	.
16d\	.	.
.	32eeJJk 32cc'>\	.
16G\	8dd 8b'>\	.
16d\JJ	.	.
=86	=86	=86
16G\LL	16.eeLL 16.cc'>\	.
16e\	.	.
.	32ff#JJk 32dd'>\	.
16c\	16.ggLL 16.ee'>\	.
16e\	.	.
.	32ff#JJk 32dd#X'>\	.
16G\	16.ggLL 16.ee'>\	.
16e\JJ	.	.
.	32eeJJk 32cc'>\	.
=87	=87	=87
16G\LL	16.ddLL 16.b'>\	.
16d\	.	.
.	32cc#XJJk 32a#X'>\	.
16B\	16.ddLL 16.b'>\	.
16d\	.	.
.	32ccnJJk 32an'>\	.
16G\	8b 8g'>/	.
16d\JJ	.	.
!!LO:LB:g=original
=88	=88	=88
16D\LL	16.ccLL 16.a`>\	.
16d\	.	.
.	32ccJJk 32a`>\	.
16F#\	8eeL 8cc`>\	.
16d\	.	.
16D\	(>16ddL 16b\	.
16d\JJ	16ccJJ 16a\)	.
=89	=89	=89
16G\LL	16.bLL 16.g\	.
16d\	.	.
.	32ccK 32a\	.
16B\	16.dd 16.b\	.
16d\	.	.
.	32eeJJk 32cc\	.
16G\	8dd 8b\	.
16d\JJ	.	.
=90	=90	=90
16.cLL 16.C\	16.eeLL 16.cc 16.g\	.
32cJJk 32C\	32eeJJk 32cc 32g\	.
8dL 8D\	8ddL 8b 8g\	.
8cJ 8A 8D\	8ff#t>\J	.
=91	=91	=91
16B 16G\	16gg\	.
16r	16r	.
4G 4GG\	4g 4d 4B/	.
!!LO:LB:g=original
=92||	=92||	=92||
!	!	!LO:DY:b:rj
8BL 8G 8E\	16.eeLL 16.e\	p
.	32ff#JJk 32f#\	.
8B 8G 8E\	8ggL 8g\	.
8BJ 8G 8E\	8bbJ 8b\	.
=93	=93	=93
*^	*	*
.	.	(<8qbb/	.
8BB\L	4.BB/	16.aa\LL)	.
.	.	32gg\JJk	.
8B 8A 8F# 8D#X\	.	8ff#\L	.
8BJ 8A 8F# 8D#\	.	8b\J	.
=94	=94	=94	=94
8E\L	4.E/	16.gg\LL	.
.	.	32ff#\K	.
8B 8G\	.	16.ee\	.
.	.	32gg\JJk	.
.	.	(<8qgg/	.
8BJ 8G\	.	16.ff#\LL)	.
.	.	32ee\JJk	.
=95	=95	=95	=95
8BB\L	4.BB/	16.dd#X\LL	.
.	.	32ee\JK	.
8BJ 8F# 8D#X\	.	8ff#\J	.
8B 8F# 8D# 8BB\	.	8bb 8ff# 8dd# 8b\	sf
*v	*v	*	*
=96	=96	=96
8BL 8G 8E\	16.eeLL 16.e\	.
.	32ff#JJk 32f#\	.
8B 8G 8E\	8ggL 8g\	.
8BJ 8G 8E\	8bbJ 8b\	.
!!LO:LB:g=original
=97	=97	=97
*^	*	*
.	.	(8qbb/	.
8BB\L	4.BB/	16.aa\LL)	.
.	.	32gg`>\JJk	.
8B 8F# 8D#X\	.	8ff#'>\L	.
8BJ 8F# 8D#\	.	8b'>\J	.
*v	*v	*	*
=98	=98	=98
8BL 8G 8E\	16.gg\LL	.
.	32ff#\K	.
8B 8G 8E\	16.ee\	.
.	32gg\JJk	.
.	(<8qgg/	.
8AJ 8F# 8BB\	16.ff#\LL)	.
.	32ee`>\JJk	.
=99	=99	=99
16G 16E\	16ee\	.
16r	16r	.
8E 8EE/	8eee 8gg 8ee\	.
8r	8r	.
=100:|!|:	=100:|!|:	=100:|!|:
*>J	*>J	*
!	!	!LO:DY:b:rj
8C#X 8CC#X/	16.b/LL	f
.	32a/JJk	.
8GL 8E 8AA/	8.aaL 8.cc#X 8.a\	.
8GJ 8E 8AA/	.	.
.	16ggJk 16ee 16a\	.
=101	=101	=101
8D 8DD/	16.ff#LL 16.dd 16.a\	.
.	32eeJJk 32a\	.
8F#L 8FF#/	8ddL 8a\	.
8DJ 8DD/	8ff#J 8dd 8a\	.
=102	=102	=102
8AA 8AAA/	16.ee\LL	.
.	32cc#X\JJk	.
8GL 8E 8AA\	8a\L	.
8GJ 8E 8AA\	8cc#\J	.
!!LO:LB:g=original
=103	=103	=103
8D 8DD/	16.dd\LL	.
.	32ff#\K	.
8F#L 8D 8AA/	16.aa\	.
.	32bb\JJk	.
8F#J 8D 8AA/	8aa\	.
=104	=104	=104
8C#X 8CC#X/	16.b-X/LL	.
.	32a/JJk	.
8GL 8E 8AA/	8.aaL 8.cc#X 8.a\	.
8GJ 8E 8AA/	.	.
.	16ggJk 16ee 16a\	.
=105	=105	=105
8D 8DD/	16.ff#LL 16.dd 16.a\	.
.	32eeJJk 32a\	.
8F#L 8FF#/	8ddL 8a\	.
8DJ 8DD/	8ff#J 8dd 8a\	.
=106	=106	=106
8G 8GG\	16.ee\LL	.
.	32b\JJk	.
.	(<8qdd/	.
8GL 8E 8AA\	8cc#X\L)	.
8GJ 8E 8AA\	8a'>\J	.
=107	=107	=107
8F# 8D\	8dd\	.
8D 8DD/	8cccn 8ff# 8dd\	.
8r	8dd 8d/	.
=108	=108	=108
!	!	!LO:DY:b:rj
8G 8GG\	16.ggLL 16.g\	p
.	32bbJJk 32b\	.
8dL 8B 8G\	8eeeL 8ee\	.
8dJ 8B 8G\	8dddJ 8dd\	.
=109	=109	=109
*tremolo	*	*
8dL 8B 8G\	16.eeeLL 16.ee\	.
.	32dddJJk 32dd\	.
8d 8B 8G\	8ggL 8g\	.
8dJ 8B 8G\	8bbJ 8b\	.
*Xtremolo	*	*
!!LO:LB:g=original
=110	=110	=110
8D 8DD/	(>16bbLL 16b\	.
.	16aaJJ 16a\)	.
8cL 8A 8F# 8D\	8dd 8d/	.
8cJ 8A 8F# 8D\	8ddd 8dd\	.
=111	=111	=111
!	!	!LO:DY:b:rj
8G 8GG/	(>16eeLL 16cc\	f
.	16ddJJ 16b\)	.
4B 4G 4D\	4gg 4b 4g\	.
=112	=112	=112
!	!	!LO:DY:b:rj
8G 8GG\	16.ggLL 16.g\	p
.	32bbJJk 32b\	.
8dL 8B 8G\	8eeeL 8ee\	.
8dJ 8B 8G\	8dddJ 8dd\	.
=113	=113	=113
*tremolo	*	*
8dL 8B 8G\	16.eeeLL 16.ee\	.
.	32dddJJk 32dd\	.
8d 8B 8G\	8ggL 8g\	.
8dJ 8B 8G\	8bbJ 8b\	.
*Xtremolo	*	*
=114	=114	=114
8D 8DD/	16bbLL 16b\	.
.	16aaJJ 16a\	.
8c 8A 8D\	8dd 8d/	.
8c 8A 8D\	8ddd 8ff# 8dd\	.
=115	=115	=115
8B 8G\	(>16aa\LL	.
.	16gg\JJ)	.
!	!LO:TX:a:t=P:w źródle tylko jedna fermata nad kreską repetycji:problem	!
4d 4B 4G\	4g/	.
!!LO:PB:g=original
=116:|!;	=116:|!;	=116:|!
*>K	*>K	*
*k[f#c#]	*k[f#c#]	*
!	!LO:TX:a:Bi:t=Coda	!
!	!	!LO:DY:b:rj
8AL 8F# 8D\	16.dd\LL	f
.	32ff#\K	.
8A 8F# 8D\	16.aa\	.
.	32ddd\JJk	.
8BJ 8G#X 8E#X 8D\	16.bb\LL	sf
.	32gg#X\JJk	.
=117	=117	=117
*rep	*	*
8AL 8F# 8D\	16.aa\LL	.
.	32ff#\K	.
8A 8F# 8D\	16.dd\	.
.	32ddd\JJk	.
8BJ 8G#X 8E#X 8D\	16.bb\LL	sf
.	32gg#X\JJk	.
*Xrep	*	*
=118	=118	=118
*tremolo	*	*
8AL 8F# 8D\	16.aa\LL	.
.	32ff#\JK	.
8A 8F# 8D\	8dd\J	.
.	(<8qee#X/	.
8AJ 8F# 8D\	8ff#\)	.
!!LO:LB:g=original
=119	=119	=119
.	(<8qff#/	.
8AL 8E 8C# 8AA\	16.ee\LL)	.
.	32dd#X`>\JK	.
8A 8E 8C# 8AA\	8ee`>\J	.
8AJ 8E 8C# 8AA\	8aa 8cc# 8a`>\	.
*Xtremolo	*	*
=120	=120	=120
8AL 8F# 8D\	16.dd\LL	.
.	32ff#\K	.
8A 8F# 8D\	16.aa\	.
.	32ddd\JJk	.
8BJ 8G#X 8E#X 8D\	16.bb\LL	sf
.	32gg#X\JJk	.
=121	=121	=121
*rep	*	*
8AL 8F# 8D\	16.aa\LL	.
.	32ff#\K	.
8A 8F# 8D\	16.dd\	.
.	32ddd\JJk	.
8BJ 8G#X 8E#X 8D\	16.bb\LL	sf
.	32gg#X\JJk	.
*Xrep	*	*
=122	=122	=122
8AL 8F# 8D\	16.aa\LL	.
.	32ff#\K	.
8A 8F# 8D\	16.dd\	.
.	32ff#\JJk	.
.	(<8qff#/	.
8GJ 8E 8AA\	16.ee\LL)	.
.	32cc#`>\JJk	.
!!LO:LB:g=original
=123	=123	=123
8B-X 8BB-X\	16.dd`>\LL	.
.	32ee`>\JK	.
8fnL 8d 8B-\	8ffn`>\J	.
8fJ 8d 8B-\	8ddd 8dd`>\	.
=124	=124	=124
8A 8AA\	16.dd`>\LL	.
.	32ee`>\JK	.
8fnL 8d 8A\	8ffn`>\J	.
8fJ 8d 8A\	8ddd 8dd`>\	.
=125	=125	=125
8G#X 8GG#X\	16.dd`>\LL	.
.	32ee`>\JK	.
8fnL 8d 8B 8G#\	8ffn`>\J	.
8fJ 8d 8B 8G#\	8ddd 8dd`>\	.
=126	=126	=126
*tremolo	*	*
8AL 8AA/	16.ff#XLL 16.dd`>\	.
.	32aaJJk 32ff#`>\	.
8A 8AA/	16.ff#LL 16.dd`>\	.
.	32aaJJk 32ff#`>\	.
.	(<8qaa 8qff#/	.
8AJ 8AA/	16.ggLL 16.ee\)	.
.	32eeJJk 32cc#`>\	.
*Xtremolo	*	*
!!LO:LB:g=original
=127	=127	=127
8B-X 8BB-X\	16.dd`>\LL	.
.	32ee`>\JK	.
8fnL 8d 8B-\	8ffn`>\J	.
8fJ 8d 8B-\	8ddd 8dd`>\	.
=128	=128	=128
*	*rep	*
8A 8AA\	16.dd`>\LL	.
.	32ee`>\JK	.
8fnL 8d 8A\	8ffn`>\J	.
8fJ 8d 8A\	8ddd 8dd`>\	.
*	*Xrep	*
=129	=129	=129
*	*rep	*
8G#X 8GG#X\	16.dd`>\LL	.
.	32ee`>\JK	.
8fnL 8d 8B 8G#\	8ffn`>\J	.
8fJ 8d 8B 8G#\	8ddd 8dd`>\	.
*	*Xrep	*
=130	=130	=130
8f#XL 8d 8A\	16aaaLL 16aa`>\	.
.	(>32fff#X\L	.
.	32ddd\JJ	.
8f#J 8d 8A\	8aa`>\J)	.
8A 8AA/	8ccc# 8gg 8ee`>\	.
!!LO:LB:g=original
=131	=131	=131
8AL 8F# 8D\	16.dddLL 16.ff# 16.dd`>\	.
.	(>32bb`>\JJk	.
8c# 8A 8G 8D\	&(>16aa\LL	.
.	16gg\JJ)&)	.
8c#J 8A 8G 8D\	16ee'>\LL	.
.	16ff#'>\JJ	.
=132	=132	=132
8dL 8A 8F# 8D\	16.dd\LL|	.
.	(>32bb\JJk	.
8c# 8A 8G 8D\	16aa\LL	.
.	16gg\JJ)	.
8c#J 8A 8G 8D\	16ee'>\LL	.
.	16ff#'>\JJ	.
=133	=133	=133
*rep	*rep	*
8dL 8A 8F# 8D\	16.dd\LL|	.
.	(>32bb\JJk	.
8c# 8A 8G 8D\	16aa\LL	.
.	16gg\JJ)	.
8c#J 8A 8G 8D\	16ee'>\LL	.
.	16ff#'>\JJ	.
*Xrep	*Xrep	*
=134	=134	=134
*rep	*rep	*
8dL 8A 8F# 8D\	16.dd\LL|	.
.	(>32bb\JJk	.
8c# 8A 8G 8D\	16aa\LL	.
.	16gg\JJ)	.
8c#J 8A 8G 8D\	16ee'>\LL	.
.	16ff#'>\JJ	.
*Xrep	*Xrep	*
!!LO:LB:g=original
=135	=135	=135
8d 8A 8F# 8D\	8dd\	.
8r	8r	.
8r	8r	.
=136	=136	=136
8A 8E 8AA\	8ccc# 8aa 8gg 8ee\	.
8r	8r	.
8r	8r	.
=137	=137	=137
8A 8F# 8D\	8ddd 8aa 8ff# 8dd\	.
8r	8r	.
8r	8r	.
=138	=138	=138
8A 8E 8AA\	8aa 8cc# 8a\	.
8r	8r	.
8r	8r	.
=139	=139	=139
8A 8F# 8D\	8dd 8a 8f#/	.
8r	8r	.
8r	8r	.
==	==	==
*-	*-	*-
!!title: @{OTL};
!!!RDF**kern: > = above
!!!RDF**kern: < = below
!!!RDF**kern: N = linked
!!!RDF**kern: i = editorial accidental
!!!EED: Wojciech Jakubiak-Danek
!!!EST: 2021-05-03
!!!URL-scan: http://repozytorium.nifc.pl/skany/pl-wtm-nut--r1336
!!!ONB-nifc:
!!!AIN: 1 empty
!!!ENC: Mateusz Solarz
!!!END: 2021-04-12
!!!RDF**kern: | = vertical stroke
